X:265
T:Lady's Fancy
C:Say Old Man, Can You Play the Fiddle
N:Transcribed by Spencer Sorenson
R:bluegrass
L:1/8
Q:1/4=220
M:4/4
K:G
z8 | [eB]c BE [eB]c BA | GB AG EF GA | [eB]c BE [eB]c BA | "B7"GB AG DE [e2B2] | 
"Em"E2 E2 DE [e2B2E2] | "AM"GE DG EF GA | "Em"Bd eg fa ge | "B7"dB AG E4 | "Em"[eB]c BE [eB]c BA | 
GB AG EF GA | [eB]c BE [eB]c BA | "B7"GB AG DE [e2B2] | "Em"E2 E2 DE [e2B2E2] | 
"AM"GE DG EF GA | "Em"Bd eg fa ge | "B7"dB (3^A=AG "Em"E4 | "Em"Be ge bg eg | 
"D"fe de fg af | "Em"Be ge bg eg | "B7"fe df ed Ac | "Em"Be ge bg eg | "D"fe de fg af | 
"Em"ga fg ed B^c | "B7"dB (3^A=AG "Em"E2 [e2B2E2] | Be ge bg eg | (3"D"efe de fg af | 
"Em"Be ge bg eg | (3"D"efe df ed Ac | "Em"Be ge bg eg | (3"D"efe de fg af | "Em"ga fg ed B^c | 
"B7"dB (3^A=AG "Em"E2 [e2B2E2] | "Em"[BE]c BE [BE]c BA | GB AG EF GA | [BE]c BE [BE]c BA | 
"B7"GB AG DE [B2E2] | "Em"E2 E2 DE [e2B2E2] | "AM"GE DG EF GA | "Em"Bd eg fa ge | 
"B7"dB AG "Em"E4 | [BE]c BE [BE]c BA | GB AG EF GA | [BE]c BE [BE]c BA | "B7"GB AG DE [e2B2] | 
"Em"E2 E2 DE [e2B2E2] | "AM"GE DG EF GA | "Em"Bd eg fa ge | "B7"dB AG "Em"E4 | 
Be ge bg eg | "D"fe de fg af | "Em"Be ge bg eg | "B7"fe df ed Ac | "Em"Be ge bg eg | 
"D"fe de fg af | "Em"ga fg ed B^c | "B7"dB AG "Em"E2 [e2B2E2] | Be ge bg eg | 
"D"fe de fg af | "Em"Be ge bg eg | "D"fe df ed Ac | "Em"Be ge bg eg | "D"fe de fg af | 
"Em"ga fg ed B^c | dB AG [e4B4E4] | 


